lib/flags/l/LY.svg

<svg xmlns="http://www.w3.org/2000/svg" fill="none" viewBox="0 0 32 24"><mask id="LY_svg__a" width="32" height="24" x="0" y="0" mask-type="alpha" maskUnits="userSpaceOnUse"><path fill="#fff" d="M0 0H32V24H0z"/></mask><g fill-rule="evenodd" clip-rule="evenodd" mask="url(#LY_svg__a)"><path fill="#55BA07" d="M0 18H32V24H0V18Z"/><path fill="#1D1D1D" d="M0 6H32V18H0V6Z"/><path fill="#E11C1B" d="M0 0H32V6H0V0Z"/><path fill="#fff" d="M15.7976 15.0658C14.0055 14.6954 13.5405 13.7577 13.5598 12.3113C13.5598 10.7808 14.3657 9.23161 15.7793 9.06225C17.193 8.89289 18.3508 9.42021 18.9577 10.1561C18.4501 8.15856 16.7685 7.94009 15.4774 7.94009C13.5336 7.9231 11.54 9.40014 11.54 12.1787C11.54 14.5993 13.2973 16.4194 15.5335 16.4644C18.3293 16.4644 18.7669 14.5337 18.8473 13.876C18.6856 13.992 18.5352 14.1305 18.3808 14.2726C17.8186 14.7902 17.2035 15.3564 15.7976 15.0658ZM20.2631 11.2911L18.9392 11.7077L20.4217 12.2879L20.2153 13.8418L21.2201 12.7726L22.678 13.0727L21.6929 11.9209L22.565 10.7439L21.3474 11.0008L20.4871 10.0287L20.2631 11.2911Z"/></g></svg>

<svg xmlns="http://www.w3.org/2000/svg" fill="none" viewBox="0 0 32 24"><mask id="LY_svg__a" width="32" height="24" x="0" y="0" maskUnits="userSpaceOnUse"><path fill="#fff" d="M0 0h32v24H0z"/></mask><g fill-rule="evenodd" clip-rule="evenodd" mask="url(#LY_svg__a)"><path fill="#55BA07" d="M0 18h32v6H0v-6z"/><path fill="#1D1D1D" d="M0 6h32v12H0V6z"/><path fill="#E11C1B" d="M0 0h32v6H0V0z"/><path fill="#fff" d="M15.798 15.066c-1.793-.37-2.258-1.308-2.238-2.755 0-1.53.806-3.08 2.22-3.249 1.413-.169 2.57.358 3.178 1.094-.508-1.997-2.19-2.216-3.48-2.216-1.944-.017-3.938 1.46-3.938 4.239 0 2.42 1.757 4.24 3.994 4.285 2.795 0 3.233-1.93 3.313-2.588a5.065 5.065 0 00-.466.397c-.562.517-1.178 1.084-2.583.793zm4.465-3.775l-1.324.417 1.483.58-.207 1.554 1.005-1.07 1.458.3-.985-1.151.872-1.177-1.218.257-.86-.972-.224 1.262z"/></g></svg>
